source/img/money-icon.svg

<svg width="145" height="110" viewBox="0 0 145 110" fill="none" xmlns="http://www.w3.org/2000/svg">
<path d="M143.71 55.1391C148.542 72.9401 139.446 84.5249 122.392 98.3702C116.139 103.739 98.4021 113.346 77.4823 108.825C51.3325 103.174 61.8495 91.0237 43.0898 74.0704C24.3302 57.117 41.3844 16.994 61.8495 8.23479C82.3145 -0.524445 106.19 -4.76278 122.392 8.23479C138.593 21.2324 138.878 37.3381 143.71 55.1391Z" fill="#F4FBFF"/>
<rect y="76.6802" width="95.7139" height="37.2221" rx="3" transform="rotate(-45 0 76.6802)" fill="#FFC7DB"/>
<mask id="mask0" mask-type="alpha" maskUnits="userSpaceOnUse" x="24" y="33" width="46" height="46">
<circle cx="46.9994" cy="56" r="15.9523" transform="rotate(-45 46.9994 56)" fill="#FFC7DB"/>
</mask>
<g mask="url(#mask0)">
<circle cx="46.9994" cy="56" r="15.9523" transform="rotate(-45 46.9994 56)" fill="#AAF0D1"/>
<path d="M38.4789 58.0696L42.1921 78.9207C42.4755 80.5123 44.4322 81.1274 45.5753 79.9843L62.7132 62.8464C63.8564 61.7033 63.2412 59.7466 61.6497 59.4632L40.7985 55.7499C39.429 55.5061 38.235 56.7001 38.4789 58.0696Z" fill="#FF689E"/>
<path d="M49.9686 51.1459L53.0785 68.0474C53.3701 69.6322 55.3202 70.2391 56.4597 69.0997L70.2512 55.3081C71.3907 54.1687 70.7838 52.2185 69.199 51.9269L52.2975 48.817C50.9198 48.5635 49.7151 49.7683 49.9686 51.1459Z" fill="#FF689E"/>
</g>
<rect x="3.75977" y="76.6802" width="5.31744" height="31.9046" rx="2" transform="rotate(-45 3.75977 76.6802)" fill="white"/>
<rect x="7.52002" y="80.4399" width="5.31744" height="9.57139" rx="2" transform="rotate(-135 7.52002 80.4399)" fill="white"/>
<rect x="26.3198" y="99.2402" width="5.31744" height="9.57139" rx="2" transform="rotate(-135 26.3198 99.2402)" fill="white"/>
<rect x="64.6724" y="23.2876" width="5.31744" height="9.57139" rx="2" transform="rotate(-135 64.6724 23.2876)" fill="white"/>
<rect x="83.4722" y="42.0884" width="5.31744" height="9.57139" rx="2" transform="rotate(-135 83.4722 42.0884)" fill="white"/>
<rect x="63.9204" y="16.52" width="5.31744" height="31.9046" rx="2" transform="rotate(-45 63.9204 16.52)" fill="white"/>
<rect x="26.3198" y="9" width="95.7139" height="37.2221" rx="3" transform="rotate(45 26.3198 9)" fill="#AAF0D1"/>
<mask id="mask1" mask-type="alpha" maskUnits="userSpaceOnUse" x="24" y="33" width="46" height="46">
<circle cx="47" cy="55.9994" r="15.9523" transform="rotate(45 47 55.9994)" fill="#FFC7DB"/>
</mask>
<g mask="url(#mask1)">
<circle cx="47" cy="55.9994" r="15.9523" transform="rotate(45 47 55.9994)" fill="#FFC7DB"/>
<path d="M44.9304 47.4789L24.0793 51.1921C22.4877 51.4755 21.8726 53.4322 23.0157 54.5753L40.1536 71.7132C41.2967 72.8564 43.2534 72.2412 43.5368 70.6497L47.2501 49.7985C47.4939 48.429 46.2999 47.235 44.9304 47.4789Z" fill="#FF689E"/>
<path d="M51.8541 58.9686L34.9526 62.0785C33.3678 62.3701 32.7609 64.3202 33.9003 65.4597L47.6919 79.2512C48.8313 80.3907 50.7815 79.7838 51.0731 78.199L54.183 61.2975C54.4365 59.9198 53.2317 58.7151 51.8541 58.9686Z" fill="#FF689E"/>
</g>
<rect x="26.3198" y="12.7598" width="5.31744" height="31.9046" rx="2" transform="rotate(45 26.3198 12.7598)" fill="white"/>
<rect x="22.5605" y="16.52" width="5.31744" height="9.57139" rx="2" transform="rotate(-45 22.5605 16.52)" fill="white"/>
<rect x="3.75977" y="35.3198" width="5.31744" height="9.57139" rx="2" transform="rotate(-45 3.75977 35.3198)" fill="white"/>
<rect x="79.7124" y="73.6724" width="5.31744" height="9.57139" rx="2" transform="rotate(-45 79.7124 73.6724)" fill="white"/>
<rect x="60.9116" y="92.4722" width="5.31744" height="9.57139" rx="2" transform="rotate(-45 60.9116 92.4722)" fill="white"/>
<rect x="86.48" y="72.9204" width="5.31744" height="31.9046" rx="2" transform="rotate(45 86.48 72.9204)" fill="white"/>
</svg>

<svg width="145" height="110" fill="none" xmlns="http://www.w3.org/2000/svg"><path d="M143.71 55.14c4.832 17.8-4.264 29.385-21.318 43.23-6.253 5.369-23.99 14.976-44.91 10.455-26.15-5.651-15.633-17.801-34.392-34.755-18.76-16.953-1.706-57.076 18.76-65.835 20.464-8.76 44.34-12.998 60.542 0 16.201 12.997 16.486 29.103 21.318 46.904z" fill="#F4FBFF"/><rect y="76.68" width="95.714" height="37.222" rx="3" transform="rotate(-45 0 76.68)" fill="#FFC7DB"/><mask id="a" maskUnits="userSpaceOnUse" x="24" y="33" width="46" height="46"><circle cx="46.999" cy="56" r="15.952" transform="rotate(-45 47 56)" fill="#FFC7DB"/></mask><g mask="url(#a)"><circle cx="46.999" cy="56" r="15.952" transform="rotate(-45 47 56)" fill="#AAF0D1"/><path d="M38.479 58.07l3.713 20.85c.283 1.592 2.24 2.207 3.383 1.064l17.138-17.138c1.143-1.143.528-3.1-1.063-3.383L40.798 55.75a2 2 0 00-2.32 2.32z" fill="#FF689E"/><path d="M49.969 51.146l3.11 16.901c.291 1.585 2.241 2.192 3.38 1.053l13.792-13.792c1.14-1.14.533-3.09-1.052-3.381l-16.901-3.11a2 2 0 00-2.33 2.329z" fill="#FF689E"/></g><rect x="3.76" y="76.68" width="5.317" height="31.905" rx="2" transform="rotate(-45 3.76 76.68)" fill="#fff"/><rect x="7.52" y="80.44" width="5.317" height="9.571" rx="2" transform="rotate(-135 7.52 80.44)" fill="#fff"/><rect x="26.32" y="99.24" width="5.317" height="9.571" rx="2" transform="rotate(-135 26.32 99.24)" fill="#fff"/><rect x="64.672" y="23.288" width="5.317" height="9.571" rx="2" transform="rotate(-135 64.672 23.288)" fill="#fff"/><rect x="83.472" y="42.088" width="5.317" height="9.571" rx="2" transform="rotate(-135 83.472 42.088)" fill="#fff"/><rect x="63.92" y="16.52" width="5.317" height="31.905" rx="2" transform="rotate(-45 63.92 16.52)" fill="#fff"/><rect x="26.32" y="9" width="95.714" height="37.222" rx="3" transform="rotate(45 26.32 9)" fill="#AAF0D1"/><mask id="b" maskUnits="userSpaceOnUse" x="24" y="33" width="46" height="46"><circle cx="47" cy="55.999" r="15.952" transform="rotate(45 47 56)" fill="#FFC7DB"/></mask><g mask="url(#b)"><circle cx="47" cy="55.999" r="15.952" transform="rotate(45 47 56)" fill="#FFC7DB"/><path d="M44.93 47.479l-20.85 3.713c-1.592.283-2.207 2.24-1.064 3.383l17.138 17.138c1.143 1.143 3.1.528 3.383-1.063l3.713-20.852a2 2 0 00-2.32-2.32z" fill="#FF689E"/><path d="M51.854 58.969l-16.901 3.11c-1.585.291-2.192 2.241-1.053 3.38l13.792 13.792c1.14 1.14 3.09.533 3.381-1.052l3.11-16.901a2 2 0 00-2.329-2.33z" fill="#FF689E"/></g><rect x="26.32" y="12.76" width="5.317" height="31.905" rx="2" transform="rotate(45 26.32 12.76)" fill="#fff"/><rect x="22.561" y="16.52" width="5.317" height="9.571" rx="2" transform="rotate(-45 22.56 16.52)" fill="#fff"/><rect x="3.76" y="35.32" width="5.317" height="9.571" rx="2" transform="rotate(-45 3.76 35.32)" fill="#fff"/><rect x="79.712" y="73.672" width="5.317" height="9.571" rx="2" transform="rotate(-45 79.712 73.672)" fill="#fff"/><rect x="60.912" y="92.472" width="5.317" height="9.571" rx="2" transform="rotate(-45 60.912 92.472)" fill="#fff"/><rect x="86.48" y="72.92" width="5.317" height="31.905" rx="2" transform="rotate(45 86.48 72.92)" fill="#fff"/></svg>
